!!!OTL: 812a. Wiederbegegnen am Brunnen. / (Ein Nachklang der Waechtlieder.)
!!!ARE: Europa, Mitteleuropa, Deutschland, Hessen, Darmstadt
!!!SCT: E0812
!!!TXL: @@DE
!!!YEM: Copyright 1995, estate of Helmut Schaffrath.
**kern	**text
*ICvox	*
*M4/4	*
*met(c)	*
*k[f#]	*
*G:	*
!LO:TX:a:t=Aus dem Heſſen-Darmſtädtiſchen (Liederh. 135).	!
{4d	Der
=1	=1
4g	Wächter
4b	.
4a	auf
4dd	dem
=2	=2
4b	Thürmlein
8bL	.
8aJ	.
4g}	ſaß,
{8gL	in's
8bJ	.
=3	=3
4dd	Hörnlein
4dd	.
4ee	thät
4ee	er
=4	=4
(4dd	bla-
4cc)	.
4b}	-ſen:
{8gL	"Und
8bJ	.
=5	=5
4dd	wer
4dd	bei
(4dd	ſei-
8ee)	.
8dd	-nem
=6	=6
8ddq	.
4cc	Schätʒ-
8ccL	-lein
8bJ	.
4cc}	leit,
{8ddL	der
8ccJ	.
=7	=7
4b	ſteh
4b	nur
(4dd	auf,
8cc)	.
8b	es
=8	=8
8bq	.
4a	iſt
4a	ſchon
4a}	Ʒeit
{8gL	der
8aJ	.
=9	=9
4b	Tag
4b	bricht
8ddL	an
8ccJ	.
8bL	mit
8ccJ	.
=10	=10
2dd	Strah-
8eeL	-len,
8ddJ	.
8ccL	ja
8bJ	.
=11	=11
2a	Strah-
4g}	-len!"
{8gL	"Und
8bJ	.
=12	=12
4dd	wer
4dd	bei
(4dd	ſei-
8ee)	.
8dd	-nem
=13	=13
8ddq	.
4cc	Schätʒ-
8ccL	-lein
8bJ	.
4cc}	leit,
{8ddL	der
8ccJ	.
=14	=14
4b	ſteh
4b	nur
(4dd	auf,
8cc)	.
8b	es
=15	=15
8bq	.
4a	iſt
4a	ſchon
4a}	Ʒeit
{8gL	der
8aJ	.
=16	=16
4b	Tag
4b	bricht
8ddL	an
8ccJ	.
8bL	mit
8ccJ	.
=17	=17
2dd	Strah-
8eeL	-len,
8ddJ	.
8ccL	ja
8bJ	.
=18	=18
2a	Strah-
4g}	-len!"
==	==
!!!AGN: Tage -, Kilt - Lied, Waechter - Lied
!!!ONB: ESAC (Essen Associative Code) Database: ERK2
!!!AMT: simple quadruple
!!!AIN: vox
!!!EED: Helmut Schaffrath
!!!EEV: 1.0
!!!GTL: Tagelieder und Kiltgesaenge
!!!URL-scan: https://rosdok.uni-rostock.de/mcrviewer/recordIdentifier/rosdok_ppn745177662/iview2/phys_0617.iview2?x=193.8995864193107&y=566.0503623560071&scale=0.7029437510502773&rotation=0&layout=singlePageLayout
!!!ENC: Anna Maria Matuszewska
!!!EEV: 2024/12/17
*-	*-
